svgs/light/calendar-clock.svg

<svg xmlns="http://www.w3.org/2000/svg" viewBox="0 0 576 512"><!--! Font Awesome Pro 6.4.2 by @fontawesome - https://fontawesome.com License - https://fontawesome.com/license (Commercial License) Copyright 2023 Fonticons, Inc. --><path d="M112 0c8.8 0 16 7.2 16 16V64H320V16c0-8.8 7.2-16 16-16s16 7.2 16 16V64h32c35.3 0 64 28.7 64 64v32 32 .7c-5.3-.5-10.6-.7-16-.7s-10.7 .2-16 .7V192H32V448c0 17.7 14.3 32 32 32H296.2c10 12.1 21.7 22.9 34.6 32H64c-35.3 0-64-28.7-64-64V192 160 128C0 92.7 28.7 64 64 64H96V16c0-8.8 7.2-16 16-16zM384 96H64c-17.7 0-32 14.3-32 32v32H416V128c0-17.7-14.3-32-32-32zm48 384a112 112 0 1 0 0-224 112 112 0 1 0 0 224zm0-256a144 144 0 1 1 0 288 144 144 0 1 1 0-288zm0 64c8.8 0 16 7.2 16 16v48h32c8.8 0 16 7.2 16 16s-7.2 16-16 16H432c-8.8 0-16-7.2-16-16V304c0-8.8 7.2-16 16-16z"/></svg>

<svg xmlns="http://www.w3.org/2000/svg" viewBox="0 0 576 512"><!--! Font Awesome Pro 6.1.1 by @fontawesome - https://fontawesome.com License - https://fontawesome.com/license (Commercial License) Copyright 2022 Fonticons, Inc. --><path d="M112 0C120.8 0 128 7.164 128 16V64H320V16C320 7.164 327.2 0 336 0C344.8 0 352 7.164 352 16V64H384C419.3 64 448 92.65 448 128V192.7C442.7 192.2 437.4 192 432 192C426.6 192 421.3 192.2 416 192.7V192H32V448C32 465.7 46.33 480 64 480H296.2C306.3 492.1 317.9 502.9 330.8 512H64C28.65 512 0 483.3 0 448V128C0 92.65 28.65 64 64 64H96V16C96 7.164 103.2 0 112 0zM384 96H64C46.33 96 32 110.3 32 128V160H416V128C416 110.3 401.7 96 384 96zM431.1 288C440.8 288 447.1 295.2 447.1 304V352H480C488.8 352 496 359.2 496 368C496 376.8 488.8 384 480 384H431.1C423.2 384 415.1 376.8 415.1 368V304C415.1 295.2 423.2 288 431.1 288V288zM288 368C288 288.5 352.5 224 432 224C511.5 224 576 288.5 576 368C576 447.5 511.5 512 432 512C352.5 512 288 447.5 288 368zM432 480C493.9 480 544 429.9 544 368C544 306.1 493.9 256 432 256C370.1 256 320 306.1 320 368C320 429.9 370.1 480 432 480z"/></svg>
